themes/default/assets/images/icons/mid/people.svg

<?xml version="1.0" encoding="UTF-8"?>
<svg width="100px" height="74px" viewBox="0 0 100 74" version="1.1" xmlns="http://www.w3.org/2000/svg" xmlns:xlink="http://www.w3.org/1999/xlink">
    <!-- Generator: sketchtool 59 (101010) - https://sketch.com -->
    <title>EF5E656B-AC49-4123-99A5-7C7551368D3D</title>
    <desc>Created with sketchtool.</desc>
    <g id="Page-1" stroke="none" stroke-width="1" fill="none" fill-rule="evenodd">
        <g id="Icons" transform="translate(-614.000000, -3145.000000)" fill-rule="nonzero">
            <g id="mid-icon-people" transform="translate(614.000000, 3145.000000)">
                <path d="M50,23.5422078 C43.5514792,23.5854213 38.2850114,18.5341936 38.23,12.2532468 C38.23,5.92169659 43.4996085,0.788961039 50,0.788961039 C56.5003915,0.788961039 61.77,5.92169659 61.77,12.2532468 C61.7149886,18.5341936 56.4485208,23.5854213 50,23.5422078 Z M50,2.32792208 C44.3246614,2.28468427 39.684982,6.72540983 39.63,12.2532468 C39.63,17.8316814 44.2728071,22.3538961 50,22.3538961 C55.7271929,22.3538961 60.37,17.8316814 60.37,12.2532468 C60.315018,6.72540983 55.6753386,2.28468427 50,2.32792208 Z" id="Shape" fill="#032663"></path>
                <path d="M26.12,31.6169062 C21.3603888,31.590023 17.5217065,27.8147877 17.5399986,23.1787594 C17.5584219,18.5427312 21.4268879,14.7964498 26.1865702,14.8053356 C30.9462525,14.8142529 34.8,18.5749762 34.8,23.211039 C34.7834577,27.865794 30.8988977,31.6276611 26.12,31.6169062 L26.12,31.6169062 Z M26.12,16.1395835 C22.1156939,16.1611 18.8853606,19.3365388 18.8999989,23.23687 C18.914737,27.1372011 22.1688997,30.2894722 26.1732599,30.2823605 C30.1776202,30.2752246 33.42,27.1113963 33.42,23.211039 C33.414703,21.3304107 32.6426204,19.5288586 31.2736033,18.2027069 C29.9045861,16.8765553 28.0507783,16.1344367 26.12,16.1395835 L26.12,16.1395835 Z" id="Shape" fill="#2969F6"></path>
                <path d="M9.91,37.2370207 C6.3351468,37.2208924 3.44900993,34.3879549 3.45999934,30.9059343 C3.47105166,27.4239137 6.37506644,24.6083628 9.94995374,24.6137038 C13.524841,24.6190601 16.42,27.4432875 16.42,30.9253247 C16.4089705,34.4181276 13.495957,37.2424031 9.91,37.2370207 Z M9.91,25.9772727 C7.85037802,25.9772727 5.99374981,27.1862605 5.20650404,29.0400566 C4.41925828,30.8938526 4.85657306,33.0270495 6.31437706,34.4441988 C7.77218105,35.8613481 9.96311897,36.2831082 11.8647977,35.5126662 C13.7664765,34.7422243 15.0040464,32.9314461 15.0000099,30.9253247 C14.9890055,28.1932392 12.7149573,25.9826088 9.91,25.9772727 L9.91,25.9772727 Z" id="Shape" fill="#A8C5DD"></path>
                <path d="M90.09,37.2370207 C86.5151468,37.2208924 83.6290099,34.3879549 83.6399993,30.9059343 C83.6510517,27.4239137 86.5550664,24.6083628 90.1299537,24.6137038 C93.704841,24.6190601 96.6,27.4432875 96.6,30.9253247 C96.5889705,34.4181276 93.675957,37.2424031 90.09,37.2370207 Z M90.09,25.9772727 C87.2802004,25.9880318 85.0108402,28.2144297 85.0200092,30.951254 C85.0292338,33.6880782 87.3135084,35.8999587 90.1233201,35.8928192 C92.9331318,35.885645 95.2054986,33.6621584 95.20001,30.9253247 C95.1835,28.1878711 92.9005007,25.9772727 90.09,25.9772727 L90.09,25.9772727 Z" id="Shape" fill="#A8C5DD"></path>
                <path d="M73.88,31.616889 C69.1203888,31.590023 65.2817065,27.8147877 65.2999986,23.1787594 C65.3184219,18.5427312 69.1868879,14.7964498 73.9465702,14.8053356 C78.7062525,14.8142529 82.56,18.5749762 82.56,23.211039 C82.5379657,27.8635565 78.6566322,31.6222989 73.88,31.616889 Z M73.88,16.1396035 C69.8756939,16.1611 66.6453606,19.3365388 66.6599989,23.23687 C66.674737,27.1372011 69.9288997,30.2894722 73.9332599,30.2823605 C77.9376202,30.2752246 81.18,27.1113963 81.18,23.211039 C81.1634673,19.2970711 77.8983705,16.1342083 73.88,16.1396035 Z" id="Shape" fill="#2969F6"></path>
                <path d="M41.5,43.5778514 C41.1189235,43.5778514 40.81,43.8788216 40.81,44.25 L40.81,73.3441558 C40.7777704,73.6053948 40.902743,73.861383 41.1311178,74.0019192 C41.3594926,74.1424553 41.6505074,74.1424553 41.8788822,74.0019192 C42.107257,73.861383 42.2322296,73.6053948 42.2,73.3441558 L42.2,44.25 C42.2000194,44.0700533 42.1259521,43.8976148 41.994381,43.771292 C41.86281,43.6449692 41.6847258,43.5753142 41.5,43.5778514 Z" id="Path" fill="#A8C5DD"></path>
                <path d="M58.49,43.5778514 C58.1072725,43.5778514 57.7954675,43.8772515 57.79,44.25 L57.79,73.3441558 C57.79,73.7207136 58.1034007,74.0259739 58.49,74.0259739 C58.8765993,74.0259739 59.19,73.7207136 59.19,73.3441558 L59.19,44.25 C59.1900194,44.0700533 59.1159521,43.8976148 58.984381,43.771292 C58.85281,43.6449692 58.6747258,43.5753142 58.49,43.5778514 Z" id="Path" fill="#A8C5DD"></path>
                <path d="M20.31,47.6103189 C20.1252742,47.6077817 19.94719,47.6774367 19.815619,47.8037596 C19.6840479,47.9300824 19.6099806,48.1025209 19.61,48.2824675 L19.61,65.2597403 C19.6522709,65.6023695 19.9507033,65.8602112 20.305,65.8602112 C20.6592967,65.8602112 20.9577291,65.6023695 21,65.2597403 L21,48.2824675 C20.9946257,47.9134792 20.6888281,47.6156243 20.31,47.6103189 L20.31,47.6103189 Z" id="Path" fill="#A8C5DD"></path>
                <path d="M5.68,48.487013 C5.29564964,48.4922497 4.98537631,48.7944639 4.98,49.1688312 L4.98,58.6558442 C4.98,59.0324019 5.29340068,59.3376623 5.68,59.3376623 C6.06659932,59.3376623 6.38,59.0324019 6.38,58.6558442 L6.38,49.1688312 C6.38,48.7922734 6.06659932,48.487013 5.68,48.487013 L5.68,48.487013 Z" id="Path" fill="#A8C5DD"></path>
                <path d="M90.09,40.3636364 C89.2538398,40.366245 88.4210914,40.4676348 87.61,40.6655844 C86.6044919,40.9262242 85.6464772,41.3369333 84.77,41.8831169 C80.6157129,36.3269312 72.7631284,34.8354501 66.77,38.4642857 C63.7533563,32.1167531 57.2261436,28.0539408 50.045,28.0539408 C42.8638564,28.0539408 36.3366437,32.1167531 33.32,38.4642857 C32.1446804,37.7389898 30.8587099,37.1998263 29.51,36.8668831 C28.417415,36.6023194 27.2958411,36.4682172 26.17,36.4675325 C21.8363646,36.4447264 17.7581537,38.4617032 15.22,41.8831169 C14.3482754,41.341607 13.3927089,40.9403664 12.39,40.6948052 C11.5789086,40.4968556 10.7461602,40.3954658 9.91,40.3928571 C4.49315863,40.3603272 0.0658902761,44.5942757 0,49.8701299 L0,58.6363636 C0,59.0129214 0.313400679,59.3181818 0.7,59.3181818 C1.08659932,59.3181818 1.39999999,59.0129214 1.4,58.6363636 L1.4,49.8701299 C1.44552105,47.3387127 2.67631929,44.9663683 4.74166259,43.4291274 C6.80700589,41.8918865 9.48039038,41.3583365 12,41.9805195 C12.8571396,42.1799377 13.6770273,42.5085764 14.43,42.9545455 C13.3075055,44.8570888 12.7178263,47.0134685 12.72,49.2077922 L12.72,65.2597403 C12.7622709,65.6023695 13.0607033,65.8602112 13.415,65.8602112 C13.7692967,65.8602112 14.0677291,65.6023695 14.11,65.2597403 L14.11,49.2467532 C14.1416657,46.17777 15.4237768,43.2467548 17.6742485,41.0985773 C19.9247203,38.9503997 22.9591805,37.7610514 26.11,37.7922078 C28.4685224,37.79283 30.7745647,38.4704002 32.74,39.7402597 C32.0319228,41.6118126 31.6663836,43.5898386 31.66,45.5844156 L31.66,73.3441558 C31.66,73.7207136 31.9734007,74.025974 32.36,74.025974 C32.7465993,74.025974 33.06,73.7207136 33.06,73.3441558 L33.06,45.5941558 C33.06,36.4868369 40.6398192,29.1038961 49.99,29.1038961 C59.3401808,29.1038961 66.92,36.4868369 66.92,45.5941558 L66.92,73.3441558 C66.92,73.7207136 67.2334007,74.025974 67.62,74.025974 C68.0065993,74.025974 68.32,73.7207136 68.32,73.3441558 L68.32,45.5941558 C68.3095307,43.5999424 67.9441178,41.6225998 67.24,39.75 C69.2054353,38.4801404 71.5114776,37.8025703 73.87,37.8019481 C77.0216063,37.7681961 80.0576016,38.9566982 82.3086553,41.1054313 C84.5597091,43.2541644 85.8409826,46.1866917 85.87,49.2564935 L85.87,65.2597403 C85.87,65.636298 86.1834007,65.9415584 86.57,65.9415584 C86.9565993,65.9415584 87.27,65.636298 87.27,65.2597403 L87.27,49.2467532 C87.2656906,47.0532576 86.6764475,44.8984726 85.56,42.9935065 C88.1627748,41.4134121 91.4360753,41.3159337 94.1330921,42.7382012 C96.8301088,44.1604688 98.5356232,46.8835173 98.6,49.8701299 L98.6,58.6363636 C98.6,59.0129214 98.9134007,59.3181818 99.3,59.3181818 C99.6865993,59.3181818 100,59.0129214 100,58.6363636 L100,49.8701299 C99.9505014,44.5828258 95.5184224,40.3312083 90.09,40.3636364 Z" id="Path" fill="#A8C5DD"></path>
                <path d="M94.32,48.487013 C94.1343485,48.487013 93.9563007,48.5588472 93.8250253,48.6867129 C93.6937498,48.8145786 93.62,48.9880017 93.62,49.1688312 L93.62,58.6558442 C93.62,59.0324019 93.9334007,59.3376623 94.32,59.3376623 C94.7065993,59.3376623 95.02,59.0324019 95.02,58.6558442 L95.02,49.1688312 C95.0146237,48.7944639 94.7043504,48.4922497 94.32,48.487013 L94.32,48.487013 Z" id="Path" fill="#A8C5DD"></path>
                <path d="M79.69,47.6103189 C79.5052742,47.6077817 79.32719,47.6774367 79.195619,47.8037596 C79.0640479,47.9300824 78.9899806,48.1025209 78.99,48.2824675 L78.99,65.2597403 C78.99,65.636298 79.3034007,65.9415584 79.69,65.9415584 C80.0765993,65.9415584 80.39,65.636298 80.39,65.2597403 L80.39,48.2824675 C80.3845325,47.909719 80.0727275,47.6103189 79.69,47.6103189 L79.69,47.6103189 Z" id="Path" fill="#A8C5DD"></path>
            </g>
        </g>
    </g>
</svg>

<svg width="100" height="74" xmlns="http://www.w3.org/2000/svg"><g fill-rule="nonzero" fill="none"><path d="M50 23.542c-6.449.043-11.715-5.008-11.77-11.289C38.23 5.922 43.5.79 50 .79s11.77 5.133 11.77 11.464c-.055 6.281-5.321 11.332-11.77 11.29zm0-21.214c-5.675-.043-10.315 4.397-10.37 9.925 0 5.579 4.643 10.1 10.37 10.1 5.727 0 10.37-4.521 10.37-10.1-.055-5.528-4.695-9.968-10.37-9.925z" fill="#032663"/><path d="M26.12 31.617c-4.76-.027-8.598-3.802-8.58-8.438.018-4.636 3.887-8.383 8.647-8.374 4.76.01 8.613 3.77 8.613 8.406-.017 4.655-3.901 8.417-8.68 8.406zm0-15.477c-4.004.021-7.235 3.197-7.22 7.097.015 3.9 3.269 7.052 7.273 7.045 4.005-.007 7.247-3.17 7.247-7.071a7 7 0 00-2.146-5.008 7.38 7.38 0 00-5.154-2.063z" fill="#2969F6"/><path d="M9.91 37.237c-3.575-.016-6.461-2.849-6.45-6.331.011-3.482 2.915-6.298 6.49-6.292 3.575.005 6.47 2.83 6.47 6.311-.011 3.493-2.924 6.317-6.51 6.312zm0-11.26c-2.06 0-3.916 1.21-4.703 3.063a4.864 4.864 0 001.107 5.404c1.458 1.417 3.65 1.84 5.55 1.069 1.902-.77 3.14-2.582 3.136-4.588-.011-2.732-2.285-4.942-5.09-4.948zM90.09 37.237c-3.575-.016-6.461-2.849-6.45-6.331.011-3.482 2.915-6.298 6.49-6.292 3.575.005 6.47 2.83 6.47 6.311-.011 3.493-2.924 6.317-6.51 6.312zm0-11.26c-2.81.011-5.08 2.237-5.07 4.974.01 2.737 2.294 4.949 5.103 4.942 2.81-.007 5.082-2.23 5.077-4.968-.017-2.737-2.3-4.948-5.11-4.948z" fill="#A8C5DD"/><path d="M73.88 31.617c-4.76-.027-8.598-3.802-8.58-8.438.018-4.636 3.887-8.383 8.647-8.374 4.76.01 8.613 3.77 8.613 8.406-.022 4.653-3.903 8.411-8.68 8.406zm0-15.477c-4.004.021-7.235 3.197-7.22 7.097.015 3.9 3.269 7.052 7.273 7.045 4.005-.007 7.247-3.17 7.247-7.071-.017-3.914-3.282-7.077-7.3-7.071z" fill="#2969F6"/><path d="M41.5 43.578a.681.681 0 00-.69.672v29.094a.676.676 0 00.321.658c.228.14.52.14.748 0a.676.676 0 00.321-.658V44.25a.663.663 0 00-.206-.479.7.7 0 00-.494-.193zM58.49 43.578c-.383 0-.695.3-.7.672v29.094c0 .377.313.682.7.682.387 0 .7-.305.7-.682V44.25a.663.663 0 00-.206-.479.7.7 0 00-.494-.193zM20.31 47.61a.7.7 0 00-.494.194.663.663 0 00-.206.478V65.26c.042.342.34.6.695.6a.694.694 0 00.695-.6V48.282a.691.691 0 00-.69-.672zM5.68 48.487a.701.701 0 00-.7.682v9.487c0 .376.313.682.7.682.387 0 .7-.306.7-.682v-9.487a.691.691 0 00-.7-.682z" fill="#A8C5DD"/><path d="M90.09 40.364c-.836.002-1.669.104-2.48.302-1.006.26-1.964.67-2.84 1.217-4.154-5.556-12.007-7.048-18-3.419-3.017-6.347-9.544-10.41-16.725-10.41-7.181 0-13.708 4.063-16.725 10.41a13.346 13.346 0 00-3.81-1.597 14.231 14.231 0 00-3.34-.4c-4.334-.022-8.412 1.995-10.95 5.416a9.766 9.766 0 00-2.83-1.188c-.811-.198-1.644-.3-2.48-.302C4.493 40.36.066 44.594 0 49.87v8.766c0 .377.313.682.7.682.387 0 .7-.305.7-.682V49.87c.046-2.531 1.276-4.904 3.342-6.44A8.69 8.69 0 0112 41.98c.857.2 1.677.529 2.43.975a12.276 12.276 0 00-1.71 6.253V65.26c.042.342.34.6.695.6a.694.694 0 00.695-.6V49.247c.032-3.07 1.314-6 3.564-8.148 2.25-2.149 5.285-3.338 8.436-3.307 2.359 0 4.665.678 6.63 1.948a16.66 16.66 0 00-1.08 5.844v27.76c0 .377.313.682.7.682.387 0 .7-.305.7-.682v-27.75c0-9.107 7.58-16.49 16.93-16.49s16.93 7.383 16.93 16.49v27.75c0 .377.313.682.7.682.387 0 .7-.305.7-.682v-27.75a16.851 16.851 0 00-1.08-5.844 12.23 12.23 0 016.63-1.948c3.152-.034 6.188 1.155 8.439 3.303 2.25 2.15 3.532 5.082 3.561 8.151V65.26c0 .376.313.682.7.682.387 0 .7-.306.7-.682V49.247a12.41 12.41 0 00-1.71-6.253 8.726 8.726 0 018.573-.256c2.697 1.422 4.403 4.146 4.467 7.132v8.766c0 .377.313.682.7.682.387 0 .7-.305.7-.682V49.87c-.05-5.287-4.482-9.539-9.91-9.506z" fill="#A8C5DD"/><path d="M94.32 48.487a.71.71 0 00-.495.2.673.673 0 00-.205.482v9.487c0 .376.313.682.7.682.387 0 .7-.306.7-.682v-9.487a.701.701 0 00-.7-.682zM79.69 47.61a.7.7 0 00-.494.194.663.663 0 00-.206.478V65.26c0 .376.313.682.7.682.387 0 .7-.306.7-.682V48.282a.691.691 0 00-.7-.672z" fill="#A8C5DD"/></g></svg>
